X: 167
Q: "Moderato."
M: C
L: 1/8
K: F
[| F3 A c2 f2 | d2 (fd) c4 | B3 c A2 F2 | G4 F2 z2 | F3 A c2 f2 |
d2 (fd) c4 | B3 c A2F2 | G4 F2 z2 | c2 c2 B2 B2 | A2 (cA) G4 | c2 c2


